X: 8528
T: Crehan's Banbh's
R: reel
M: 4/4
K: Eminor
BE ~E2 EDB,E|DB,A,B, DEGA|BEED EFGA|BAGB AB/A/ GA|
BE ~E2 EDB,E|DB,A,B, DEGA|~B2 BA GBdB|AFDF ~E3 A||
(3Bcd ef (3gfe be|fdad fdad|(3Bcd ef (3gfe be|fedf e{/g}f ed|
cdef (3gfe be|fedf edBA|FEFA d^cdB|AFDF ~E2 GA||

